public/img/assets/icons/weather-conditions/rain-night.svg

<svg width="120" height="120" viewBox="0 0 120 120" fill="none" xmlns="http://www.w3.org/2000/svg">
<path d="M82.9375 39.8C82.8496 39.8 82.7764 39.8294 82.7031 39.8294C82.8643 39.0656 82.9375 38.2725 82.9375 37.45C82.9375 30.9581 77.6934 25.7 71.2188 25.7C67.6152 25.7 64.4365 27.3597 62.2832 29.93C59.5586 24.6425 54.124 21 47.7813 21C38.7139 21 31.375 28.3584 31.375 37.45C31.375 38.5222 31.4922 39.5503 31.6826 40.5638C26.0723 42.4144 22 47.6578 22 53.9C22 61.6844 28.2988 68 36.0625 68H82.9375C90.7012 68 97 61.6844 97 53.9C97 46.1156 90.7012 39.8 82.9375 39.8Z" fill="#FF99FF"/>
<path d="M58.2308 58.6484C56.8769 63.2726 54 64.5224 54 67.7822C54 70.6671 56.274 73 59.0769 73C61.8798 73 64.1538 70.6671 64.1538 67.7822C64.1538 64.5119 61.2769 63.2934 59.9231 58.6484C59.6904 57.8048 58.4952 57.7632 58.2308 58.6484Z" fill="#D580FF"/>
<path d="M41.2308 58.6484C39.8769 63.2726 37 64.5224 37 67.7822C37 70.6671 39.274 73 42.0769 73C44.8798 73 47.1538 70.6671 47.1538 67.7822C47.1538 64.5119 44.2769 63.2934 42.9231 58.6484C42.6904 57.8048 41.4952 57.7632 41.2308 58.6484Z" fill="#D580FF"/>
<path d="M75.2308 58.6484C73.8769 63.2726 71 64.5224 71 67.7822C71 70.6671 73.274 73 76.0769 73C78.8798 73 81.1538 70.6671 81.1538 67.7822C81.1538 64.5119 78.2769 63.2934 76.9231 58.6484C76.6904 57.8048 75.4952 57.7632 75.2308 58.6484Z" fill="#D580FF"/>
<path fill-rule="evenodd" clip-rule="evenodd" d="M80.9957 68C80.9985 67.9278 81 67.8552 81 67.7822C81 66.0656 80.2073 64.9143 79.2583 63.536C78.3994 62.2886 77.4124 60.8552 76.7692 58.6484C76.5365 57.8048 75.3413 57.7632 75.0769 58.6484C74.4349 60.8414 73.4503 62.2754 72.5924 63.5249C71.6414 64.91 70.8462 66.0683 70.8462 67.7822C70.8462 67.8552 70.8476 67.9278 70.8505 68H80.9957ZM64.0726 68C64.0755 67.9278 64.0769 67.8552 64.0769 67.7822C64.0769 66.0656 63.2842 64.9143 62.3352 63.536C61.4763 62.2886 60.4893 60.8552 59.8462 58.6484C59.6135 57.8048 58.4183 57.7632 58.1538 58.6484C57.5118 60.8414 56.5272 62.2754 55.6693 63.5249C54.7183 64.91 53.9231 66.0683 53.9231 67.7822C53.9231 67.8552 53.9245 67.9278 53.9274 68H64.0726ZM47.1495 68C47.1524 67.9278 47.1538 67.8552 47.1538 67.7822C47.1538 66.0656 46.3611 64.9143 45.4121 63.536C44.5532 62.2886 43.5663 60.8552 42.9231 58.6484C42.6904 57.8048 41.4952 57.7632 41.2308 58.6484C40.5887 60.8414 39.6041 62.2754 38.7463 63.5249C37.7952 64.91 37 66.0683 37 67.7822C37 67.8552 37.0015 67.9278 37.0043 68H47.1495Z" fill="#9966FF"/>
<path d="M50.2308 72.6484C48.8769 77.2726 46 78.5224 46 81.7822C46 84.6671 48.274 87 51.0769 87C53.8798 87 56.1538 84.6671 56.1538 81.7822C56.1538 78.5119 53.2769 77.2934 51.9231 72.6484C51.6904 71.8048 50.4952 71.7632 50.2308 72.6484Z" fill="#D580FF"/>
<path d="M66.2308 72.6484C64.8769 77.2726 62 78.5224 62 81.7822C62 84.6671 64.274 87 67.0769 87C69.8798 87 72.1538 84.6671 72.1538 81.7822C72.1538 78.5119 69.2769 77.2934 67.9231 72.6484C67.6904 71.8048 66.4952 71.7632 66.2308 72.6484Z" fill="#D580FF"/>
<path d="M58.2308 85.6484C56.8769 90.2726 54 91.5224 54 94.7822C54 97.6671 56.274 100 59.0769 100C61.8798 100 64.1538 97.6671 64.1538 94.7822C64.1538 91.5119 61.2769 90.2934 59.9231 85.6484C59.6904 84.8048 58.4952 84.7632 58.2308 85.6484Z" fill="#D580FF"/>
</svg>

<svg width="120" height="120" fill="none" xmlns="http://www.w3.org/2000/svg"><path d="M82.938 39.8c-.088 0-.162.03-.235.03.161-.764.234-1.557.234-2.38 0-6.492-5.244-11.75-11.718-11.75-3.604 0-6.782 1.66-8.936 4.23C59.56 24.642 54.124 21 47.781 21c-9.067 0-16.406 7.358-16.406 16.45 0 1.072.117 2.1.308 3.114C26.073 42.414 22 47.658 22 53.9 22 61.684 28.299 68 36.063 68h46.874C90.701 68 97 61.684 97 53.9s-6.299-14.1-14.063-14.1Z" fill="#F9F"/><path d="M58.23 58.648C56.878 63.273 54 64.522 54 67.782 54 70.667 56.274 73 59.077 73s5.077-2.333 5.077-5.218c0-3.27-2.877-4.489-4.23-9.134-.234-.843-1.429-.885-1.693 0ZM41.23 58.648C39.878 63.273 37 64.522 37 67.782 37 70.667 39.274 73 42.077 73s5.077-2.333 5.077-5.218c0-3.27-2.877-4.489-4.23-9.134-.234-.843-1.429-.885-1.693 0ZM75.23 58.648C73.878 63.273 71 64.522 71 67.782 71 70.667 73.274 73 76.077 73s5.077-2.333 5.077-5.218c0-3.27-2.877-4.489-4.23-9.134-.234-.843-1.429-.885-1.693 0Z" fill="#D580FF"/><path fill-rule="evenodd" clip-rule="evenodd" d="M80.996 68a5.62 5.62 0 0 0 .004-.218c0-1.716-.793-2.868-1.742-4.246-.859-1.247-1.846-2.68-2.489-4.888-.233-.843-1.428-.885-1.692 0-.642 2.193-1.627 3.627-2.485 4.877-.95 1.385-1.746 2.543-1.746 4.257 0 .073.002.146.004.218h10.146Zm-16.923 0c.003-.072.004-.145.004-.218 0-1.716-.793-2.868-1.742-4.246-.859-1.247-1.846-2.68-2.489-4.888-.232-.843-1.428-.885-1.692 0-.642 2.193-1.627 3.627-2.485 4.877-.95 1.385-1.746 2.543-1.746 4.257 0 .073.002.146.004.218h10.146ZM47.15 68c.002-.072.004-.145.004-.218 0-1.716-.793-2.868-1.742-4.246-.859-1.247-1.846-2.68-2.489-4.888-.233-.843-1.428-.885-1.692 0-.642 2.193-1.627 3.627-2.485 4.877C37.796 64.91 37 66.068 37 67.782c0 .073.002.146.004.218H47.15Z" fill="#96F"/><path d="M50.23 72.648C48.878 77.273 46 78.522 46 81.782 46 84.667 48.274 87 51.077 87s5.077-2.333 5.077-5.218c0-3.27-2.877-4.489-4.23-9.134-.234-.843-1.429-.885-1.693 0ZM66.23 72.648C64.878 77.273 62 78.522 62 81.782 62 84.667 64.274 87 67.077 87s5.077-2.333 5.077-5.218c0-3.27-2.877-4.489-4.23-9.134-.234-.843-1.429-.885-1.693 0ZM58.23 85.648C56.878 90.273 54 91.522 54 94.782c0 2.885 2.274 5.218 5.077 5.218s5.077-2.333 5.077-5.218c0-3.27-2.877-4.489-4.23-9.134-.234-.843-1.429-.885-1.693 0Z" fill="#D580FF"/></svg>
